public/themes/sci-fi/star system.svg

<?xml version="1.0" encoding="utf-8"?>

<!-- Uploaded to: SVG Repo, www.svgrepo.com, Generator: SVG Repo Mixer Tools -->
<svg fill="#00a6bd" height="800px" width="800px" version="1.1" id="Icons" xmlns="http://www.w3.org/2000/svg" xmlns:xlink="http://www.w3.org/1999/xlink" 
	 viewBox="0 0 32 32" xml:space="preserve">
<g>
	<path d="M16,12c-2.2,0-4,1.8-4,4s1.8,4,4,4s4-1.8,4-4S18.2,12,16,12z"/>
	<path d="M16,7c-5,0-9,4-9,9c0,3.5,2,6.5,5,8c0,1.6,1.4,3,3,3c1.4,0,2.5-0.9,2.9-2.2C22,23.9,25,20.3,25,16C25,11,21,7,16,7z
		 M17.7,22.8c-0.5-1-1.5-1.8-2.7-1.8c-0.9,0-1.8,0.5-2.3,1.1C10.4,20.9,9,18.6,9,16c0-3.9,3.1-7,7-7s7,3.1,7,7
		C23,19.2,20.8,22,17.7,22.8z"/>
	<path d="M27.7,8.3C27.9,7.9,28,7.5,28,7c0-1.7-1.3-3-3-3c-0.5,0-0.9,0.1-1.3,0.3C21.4,2.8,18.8,2,16,2C8.3,2,2,8.3,2,16
		s6.3,14,14,14s14-6.3,14-14C30,13.2,29.2,10.6,27.7,8.3z M16,28C9.4,28,4,22.6,4,16S9.4,4,16,4c2.2,0,4.4,0.6,6.3,1.8
		C22.1,6.1,22,6.6,22,7c0,1.7,1.3,3,3,3c0.4,0,0.9-0.1,1.2-0.3c1.2,1.9,1.8,4,1.8,6.3C28,22.6,22.6,28,16,28z"/>
</g>
</svg>

<?xml version="1.0" encoding="UTF-8" standalone="no"?>
<!-- Uploaded to: SVG Repo, www.svgrepo.com, Generator: SVG Repo Mixer Tools -->

<svg
   fill="#00a6bd"
   height="700"
   width="700"
   version="1.1"
   id="Icons"
   viewBox="0 0 28 28"
   xml:space="preserve"
   sodipodi:docname="star system.svg"
   inkscape:version="1.4.2 (ebf0e940, 2025-05-08)"
   xmlns:inkscape="http://www.inkscape.org/namespaces/inkscape"
   xmlns:sodipodi="http://sodipodi.sourceforge.net/DTD/sodipodi-0.dtd"
   xmlns="http://www.w3.org/2000/svg"
   xmlns:svg="http://www.w3.org/2000/svg"><defs
   id="defs3" /><sodipodi:namedview
   id="namedview3"
   pagecolor="#ffffff"
   bordercolor="#000000"
   borderopacity="0.25"
   inkscape:showpageshadow="2"
   inkscape:pageopacity="0.0"
   inkscape:pagecheckerboard="0"
   inkscape:deskcolor="#d1d1d1"
   inkscape:zoom="0.43872192"
   inkscape:cx="634.79846"
   inkscape:cy="287.19787"
   inkscape:window-width="1712"
   inkscape:window-height="971"
   inkscape:window-x="0"
   inkscape:window-y="39"
   inkscape:window-maximized="1"
   inkscape:current-layer="Icons" />
<g
   id="g3"
   transform="translate(-2,-2)">
	<path
   d="m 16,12 c -2.2,0 -4,1.8 -4,4 0,2.2 1.8,4 4,4 2.2,0 4,-1.8 4,-4 0,-2.2 -1.8,-4 -4,-4 z"
   id="path1" />
	<path
   d="m 16,7 c -5,0 -9,4 -9,9 0,3.5 2,6.5 5,8 0,1.6 1.4,3 3,3 1.4,0 2.5,-0.9 2.9,-2.2 C 22,23.9 25,20.3 25,16 25,11 21,7 16,7 Z m 1.7,15.8 C 17.2,21.8 16.2,21 15,21 14.1,21 13.2,21.5 12.7,22.1 10.4,20.9 9,18.6 9,16 c 0,-3.9 3.1,-7 7,-7 3.9,0 7,3.1 7,7 0,3.2 -2.2,6 -5.3,6.8 z"
   id="path2" />
	<path
   d="M 27.7,8.3 C 27.9,7.9 28,7.5 28,7 28,5.3 26.7,4 25,4 24.5,4 24.1,4.1 23.7,4.3 21.4,2.8 18.8,2 16,2 8.3,2 2,8.3 2,16 2,23.7 8.3,30 16,30 23.7,30 30,23.7 30,16 30,13.2 29.2,10.6 27.7,8.3 Z M 16,28 C 9.4,28 4,22.6 4,16 4,9.4 9.4,4 16,4 18.2,4 20.4,4.6 22.3,5.8 22.1,6.1 22,6.6 22,7 c 0,1.7 1.3,3 3,3 0.4,0 0.9,-0.1 1.2,-0.3 1.2,1.9 1.8,4 1.8,6.3 0,6.6 -5.4,12 -12,12 z"
   id="path3" />
</g>
</svg>
